images/zhuyin/24.svg

<svg width="50" height="50" viewBox="0 0 50 50" fill="none" xmlns="http://www.w3.org/2000/svg">
<path d="M16.9375 18.7812C17.4375 18.7812 17.9297 18.9609 18.4141 19.3203C18.9922 19.7422 19.2812 20.1016 19.2812 20.3984C19.2812 20.4922 19.2344 20.6016 19.1406 20.7266C19.0469 20.9297 19 21.2812 19 21.7812L19.0938 29.6562C19.0938 29.9531 19.1172 30.1797 19.1641 30.3359C19.3203 30.4609 19.4844 30.5234 19.6562 30.5234C19.8906 30.5234 20.2344 30.4922 20.6875 30.4297L30.7188 29.0938V21.125C30.7188 20.2969 30.5859 19.5781 30.3203 18.9688C30.2109 18.8125 30.1562 18.6328 30.1562 18.4297C30.1562 18.2266 30.2812 18.125 30.5312 18.125C30.9688 18.125 31.4688 18.2812 32.0312 18.5938C32.9062 19.1094 33.3438 19.5781 33.3438 20C33.3438 20.125 33.25 20.3125 33.0625 20.5625C32.8125 20.9375 32.6875 21.8125 32.6875 23.1875V29.6562C32.6875 30.6562 32.5 31.375 32.125 31.8125C32 32 31.8125 32.0938 31.5625 32.0938C31.4375 32.0938 31.1875 31.9062 30.8125 31.5312C30.4375 31.0312 30.0625 30.7812 29.6875 30.7812C26.7344 30.9844 24.0469 31.3203 21.625 31.7891C20.8125 31.8828 20.1953 32.0781 19.7734 32.375C19.4922 32.5625 19.2969 32.6562 19.1875 32.6562C18.9375 32.6562 18.5625 32.4688 18.0625 32.0938C17.5 31.7188 17.2188 31.3438 17.2188 30.9688C17.2188 30.7812 17.25 30.6016 17.3125 30.4297V29.4922L17.125 21.5938C17.0625 20.8594 16.9062 20.1172 16.6562 19.3672C16.5938 19.2266 16.5625 19.0938 16.5625 18.9688C16.5625 18.8438 16.6875 18.7812 16.9375 18.7812Z" fill="#333333"/>
<path d="M18.4141 19.3203L18.1161 19.7219L18.1193 19.7242L18.4141 19.3203ZM19.1406 20.7266L18.7406 20.4266L18.7088 20.4689L18.6866 20.517L19.1406 20.7266ZM19 21.7812H18.5L18.5 21.7872L19 21.7812ZM19.0938 29.6562H19.5938L19.5937 29.6503L19.0938 29.6562ZM19.1641 30.3359L18.6851 30.4796L18.73 30.629L18.8517 30.7264L19.1641 30.3359ZM20.6875 30.4297L20.6215 29.9341L20.6192 29.9344L20.6875 30.4297ZM30.7188 29.0938L30.7848 29.5894L31.2188 29.5316V29.0938H30.7188ZM30.3203 18.9688L30.7787 18.769L30.7586 18.723L30.7299 18.682L30.3203 18.9688ZM32.0312 18.5938L32.2852 18.1628L32.2741 18.1567L32.0312 18.5938ZM33.0625 20.5625L32.6625 20.2625L32.6542 20.2736L32.6465 20.2851L33.0625 20.5625ZM32.125 31.8125L31.7454 31.4871L31.7257 31.51L31.709 31.5352L32.125 31.8125ZM30.8125 31.5312L30.4125 31.8312L30.4338 31.8597L30.4589 31.8848L30.8125 31.5312ZM29.6875 30.7812V30.2812H29.6703L29.6532 30.2824L29.6875 30.7812ZM21.625 31.7891L21.6823 32.2858L21.7013 32.2836L21.72 32.28L21.625 31.7891ZM19.7734 32.375L20.0509 32.7912L20.0612 32.7839L19.7734 32.375ZM18.0625 32.0938L18.3625 31.6938L18.3514 31.6854L18.3398 31.6777L18.0625 32.0938ZM17.3125 30.4297L17.7824 30.6006L17.8125 30.5178V30.4297H17.3125ZM17.3125 29.4922H17.8126L17.8124 29.4803L17.3125 29.4922ZM17.125 21.5938L17.6249 21.5819L17.6245 21.5666L17.6232 21.5513L17.125 21.5938ZM16.6562 19.3672L17.1306 19.2091L17.123 19.1862L17.1132 19.1641L16.6562 19.3672ZM16.9375 19.2812C17.3095 19.2812 17.6997 19.4129 18.1161 19.7219L18.712 18.9188C18.1597 18.509 17.5655 18.2812 16.9375 18.2812V19.2812ZM18.1193 19.7242C18.3901 19.9218 18.5686 20.0875 18.6748 20.2196C18.7853 20.357 18.7812 20.412 18.7812 20.3984H19.7812C19.7812 20.088 19.6327 19.8149 19.4541 19.5929C19.2713 19.3656 19.0161 19.1407 18.7088 18.9164L18.1193 19.7242ZM18.7812 20.3984C18.7812 20.362 18.7902 20.3452 18.7865 20.3538C18.7828 20.3626 18.7706 20.3866 18.7406 20.4266L19.5406 21.0266C19.6599 20.8675 19.7812 20.6514 19.7812 20.3984H18.7812ZM18.6866 20.517C18.5432 20.8278 18.5 21.2768 18.5 21.7812H19.5C19.5 21.2857 19.5505 21.0316 19.5946 20.9361L18.6866 20.517ZM18.5 21.7872L18.5938 29.6622L19.5937 29.6503L19.5 21.7753L18.5 21.7872ZM18.5938 29.6562C18.5938 29.9689 18.6172 30.2532 18.6851 30.4796L19.643 30.1923C19.6171 30.1061 19.5938 29.9374 19.5938 29.6562H18.5938ZM18.8517 30.7264C19.0814 30.9101 19.3528 31.0234 19.6562 31.0234V30.0234C19.616 30.0234 19.5592 30.0118 19.4764 29.9455L18.8517 30.7264ZM19.6562 31.0234C19.9259 31.0234 20.2971 30.9883 20.7558 30.925L20.6192 29.9344C20.1717 29.9961 19.8554 30.0234 19.6562 30.0234V31.0234ZM20.7535 30.9253L30.7848 29.5894L30.6527 28.5981L20.6215 29.9341L20.7535 30.9253ZM31.2188 29.0938V21.125H30.2188V29.0938H31.2188ZM31.2188 21.125C31.2188 20.2445 31.0776 19.4548 30.7787 18.769L29.862 19.1685C30.0942 19.7014 30.2188 20.3492 30.2188 21.125H31.2188ZM30.7299 18.682C30.6833 18.6154 30.6562 18.5373 30.6562 18.4297H29.6562C29.6562 18.7284 29.7386 19.0096 29.9107 19.2555L30.7299 18.682ZM30.6562 18.4297C30.6562 18.4298 30.6563 18.4352 30.6546 18.4449C30.6528 18.4547 30.6493 18.469 30.6423 18.4862C30.6269 18.5236 30.6005 18.5607 30.5653 18.5892C30.5012 18.6413 30.461 18.625 30.5312 18.625V17.625C30.3515 17.625 30.1238 17.6594 29.9347 17.8131C29.7257 17.9829 29.6562 18.2204 29.6562 18.4297H30.6562ZM30.5312 18.625C30.853 18.625 31.2677 18.7415 31.7884 19.0308L32.2741 18.1567C31.6698 17.821 31.0845 17.625 30.5312 17.625V18.625ZM31.7774 19.0245C32.1947 19.2704 32.4774 19.4882 32.6501 19.6732C32.8261 19.8618 32.8438 19.9678 32.8438 20H33.8438C33.8438 19.6103 33.6426 19.271 33.3812 18.9909C33.1163 18.7071 32.7428 18.4327 32.2851 18.163L31.7774 19.0245ZM32.8438 20C32.8438 19.9704 32.849 19.956 32.8473 19.9618C32.8457 19.9669 32.8402 19.9827 32.8262 20.0108C32.7976 20.0681 32.7461 20.151 32.6625 20.2625L33.4625 20.8625C33.5664 20.724 33.6556 20.5881 33.7207 20.458C33.7817 20.3359 33.8438 20.1758 33.8438 20H32.8438ZM32.6465 20.2851C32.4567 20.5698 32.3511 20.9756 32.2863 21.4293C32.2191 21.8993 32.1875 22.4878 32.1875 23.1875H33.1875C33.1875 22.5122 33.2184 21.9757 33.2762 21.5707C33.3364 21.1494 33.4183 20.9302 33.4785 20.8399L32.6465 20.2851ZM32.1875 23.1875V29.6562H33.1875V23.1875H32.1875ZM32.1875 29.6562C32.1875 30.6167 32.0031 31.1865 31.7454 31.4871L32.5046 32.1379C32.9969 31.5635 33.1875 30.6958 33.1875 29.6562H32.1875ZM31.709 31.5352C31.688 31.5665 31.6668 31.5938 31.5625 31.5938V32.5938C31.9582 32.5938 32.312 32.4335 32.541 32.0898L31.709 31.5352ZM31.5625 31.5938C31.6445 31.5938 31.6875 31.6207 31.6689 31.6114C31.6585 31.6061 31.6302 31.5898 31.5812 31.5531C31.4837 31.48 31.3466 31.3583 31.1661 31.1777L30.4589 31.8848C30.6534 32.0792 30.8288 32.2388 30.9813 32.3531C31.0573 32.4102 31.1384 32.4642 31.2217 32.5058C31.2969 32.5434 31.418 32.5938 31.5625 32.5938V31.5938ZM31.2125 31.2313C30.8055 30.6885 30.3008 30.2812 29.6875 30.2812V31.2812C29.8242 31.2812 30.0695 31.374 30.4125 31.8312L31.2125 31.2313ZM29.6532 30.2824C26.6836 30.4867 23.9754 30.8249 21.53 31.2982L21.72 32.28C24.1183 31.8158 26.7852 31.4821 29.7218 31.2801L29.6532 30.2824ZM21.5677 31.2924C20.716 31.3906 20.0045 31.601 19.4857 31.9661L20.0612 32.7839C20.3861 32.5553 20.909 32.375 21.6823 32.2858L21.5677 31.2924ZM19.4961 31.959C19.3655 32.0461 19.2679 32.1024 19.1997 32.1352C19.1659 32.1514 19.1462 32.1584 19.1386 32.1608C19.1285 32.1639 19.1479 32.1562 19.1875 32.1562V33.1562C19.3598 33.1562 19.5208 33.0903 19.6324 33.0367C19.7594 32.9757 19.9002 32.8914 20.0508 32.791L19.4961 31.959ZM19.1875 32.1562C19.1758 32.1562 19.1016 32.148 18.9424 32.0684C18.7913 31.9929 18.599 31.8711 18.3625 31.6938L17.7625 32.4937C18.026 32.6914 18.2712 32.8509 18.4951 32.9628C18.7109 33.0707 18.9492 33.1562 19.1875 33.1562V32.1562ZM18.3398 31.6777C17.8075 31.3229 17.7188 31.0783 17.7188 30.9688H16.7188C16.7188 31.6092 17.1925 32.1146 17.7852 32.5098L18.3398 31.6777ZM17.7188 30.9688C17.7188 30.838 17.7403 30.7163 17.7824 30.6006L16.8426 30.2588C16.7597 30.4868 16.7188 30.7245 16.7188 30.9688H17.7188ZM17.8125 30.4297V29.4922H16.8125V30.4297H17.8125ZM17.8124 29.4803L17.6249 21.5819L16.6251 21.6056L16.8126 29.5041L17.8124 29.4803ZM17.6232 21.5513C17.5571 20.7749 17.3922 19.9939 17.1306 19.2091L16.1819 19.5253C16.4203 20.2405 16.5679 20.9439 16.6268 21.6362L17.6232 21.5513ZM17.1132 19.1641C17.0727 19.073 17.0625 19.0096 17.0625 18.9688H16.0625C16.0625 19.1779 16.1148 19.3801 16.1993 19.5703L17.1132 19.1641ZM17.0625 18.9688C17.0625 19.025 17.047 19.0965 17.002 19.1641C16.959 19.2285 16.9079 19.2613 16.8799 19.2753C16.8537 19.2884 16.8415 19.2885 16.8556 19.2862C16.8684 19.284 16.8945 19.2812 16.9375 19.2812V18.2812C16.787 18.2812 16.5996 18.2974 16.4326 18.3809C16.3421 18.4262 16.2441 18.4981 16.1699 18.6094C16.0936 18.7238 16.0625 18.85 16.0625 18.9688H17.0625Z" fill="#333333"/>
</svg>

<svg xmlns="http://www.w3.org/2000/svg" width="50" height="50" fill="none"><path fill="#333" d="M16.938 18.781c.5 0 .992.18 1.476.54.578.421.867.78.867 1.077 0 .094-.047.204-.14.329-.094.203-.141.554-.141 1.054l.094 7.875c0 .297.023.524.07.68.156.125.32.187.492.187.235 0 .578-.03 1.032-.093l10.03-1.336v-7.969c0-.828-.132-1.547-.398-2.156a.917.917 0 0 1-.164-.54c0-.202.125-.304.375-.304.438 0 .938.156 1.5.469.875.515 1.313.984 1.313 1.406 0 .125-.094.313-.282.563-.25.375-.374 1.25-.374 2.625v6.468c0 1-.188 1.719-.563 2.157-.125.187-.313.28-.563.28-.125 0-.375-.187-.75-.562-.375-.5-.75-.75-1.125-.75-2.953.203-5.64.54-8.062 1.008-.813.094-1.43.29-1.852.586-.28.188-.476.281-.585.281-.25 0-.625-.187-1.125-.562-.563-.375-.844-.75-.844-1.125 0-.188.031-.367.093-.54v-.937l-.187-7.898a9.605 9.605 0 0 0-.469-2.227.985.985 0 0 1-.093-.398c0-.125.125-.188.375-.188Z"/><path fill="#333" d="m18.414 19.32-.298.402.003.002.295-.404Zm.727 1.407-.4-.3-.032.042-.022.048.454.21ZM19 21.78h-.5v.006l.5-.006Zm.094 7.875h.5v-.006l-.5.006Zm.07.68-.479.144.045.149.122.097.312-.39Zm1.523.094-.066-.496h-.002l.069.496Zm10.032-1.336.066.495.434-.057v-.438h-.5Zm-.399-10.125.459-.2-.02-.046-.03-.041-.409.287Zm1.711-.375.254-.431-.01-.006-.244.437Zm1.032 1.968-.4-.3-.009.012-.008.011.416.277Zm-.938 11.25-.38-.325-.02.023-.016.025.416.277Zm-1.313-.28-.4.3.022.028.025.025.354-.354Zm-1.125-.75v-.5h-.034l.035.5Zm-8.062 1.007.057.497.02-.002.018-.004-.095-.49Zm-1.852.586.278.416.01-.007-.288-.409Zm-1.71-.281.3-.4-.012-.009-.011-.007-.277.416Zm-.75-1.664.47.17.03-.082v-.088h-.5Zm0-.938h.5v-.012l-.5.012Zm-.188-7.898.5-.012v-.015l-.002-.016-.498.043Zm-.469-2.227.475-.158-.008-.023-.01-.022-.457.203Zm.282-.086c.372 0 .762.132 1.178.44l.596-.802c-.552-.41-1.146-.638-1.774-.638v1Zm1.181.443c.271.198.45.363.556.496.11.137.106.192.106.178h1c0-.31-.148-.583-.327-.805a3.93 3.93 0 0 0-.745-.677l-.59.808Zm.662.674c0-.036.01-.053.006-.044a.387.387 0 0 1-.046.073l.8.6c.119-.16.24-.376.24-.629h-1Zm-.094.119c-.144.31-.187.76-.187 1.264h1c0-.495.05-.75.095-.845l-.908-.419Zm-.187 1.27.094 7.875 1-.012-.094-7.875-1 .012Zm.094 7.87c0 .312.023.596.091.823l.958-.288c-.026-.086-.05-.255-.05-.536h-1Zm.258 1.07c.23.183.5.296.804.296v-1c-.04 0-.097-.011-.18-.078l-.624.781Zm.804.296c.27 0 .641-.035 1.1-.098l-.137-.99a7.776 7.776 0 0 1-.963.088v1Zm1.098-.098 10.03-1.336-.131-.99-10.031 1.335.131.991Zm10.465-1.831v-7.969h-1v7.969h1Zm0-7.969c0-.88-.141-1.67-.44-2.356l-.917.4c.232.532.357 1.18.357 1.956h1Zm-.49-2.443a.418.418 0 0 1-.073-.252h-1c0 .298.083.58.255.826l.819-.574Zm-.073-.252-.001.015a.264.264 0 0 1-.09.144c-.064.052-.104.036-.034.036v-1a.93.93 0 0 0-.596.188.775.775 0 0 0-.279.617h1Zm-.125.195c.322 0 .737.116 1.257.406l.486-.874c-.604-.336-1.19-.532-1.743-.532v1Zm1.246.4c.418.245.7.463.873.648.176.189.194.295.194.327h1c0-.39-.201-.729-.463-1.01-.265-.283-.638-.557-1.096-.827l-.508.861Zm1.067.975c0-.03.005-.044.003-.038a.359.359 0 0 1-.02.049c-.03.057-.08.14-.164.252l.8.6c.103-.139.193-.275.258-.405a1.04 1.04 0 0 0 .123-.458h-1Zm-.197.285c-.19.285-.296.69-.36 1.144a12.82 12.82 0 0 0-.1 1.759h1c0-.676.031-1.212.09-1.617.06-.422.141-.64.201-.731l-.831-.555Zm-.46 2.902v6.47h1v-6.47h-1Zm0 6.47c0 .96-.184 1.53-.442 1.83l.76.65c.492-.573.682-1.441.682-2.48h-1Zm-.478 1.878c-.021.032-.042.059-.146.059v1c.395 0 .749-.16.978-.504l-.832-.555Zm-.146.059c.082 0 .125.027.106.017a.678.678 0 0 1-.088-.058 4.205 4.205 0 0 1-.415-.375l-.707.707c.194.194.37.354.522.468.076.057.157.111.24.153a.767.767 0 0 0 .341.088v-1Zm-.35-.363c-.408-.543-.912-.95-1.526-.95v1c.137 0 .383.093.726.55l.8-.6Zm-1.56-.949c-2.97.205-5.678.543-8.123 1.016l.19.982c2.398-.464 5.065-.798 8.002-1l-.069-.998Zm-8.085 1.01c-.852.099-1.564.309-2.082.674l.575.818c.325-.229.848-.409 1.621-.498l-.114-.994Zm-2.072.667c-.13.087-.228.143-.296.176a.5.5 0 0 1-.061.026c-.01.003.009-.005.049-.005v1c.172 0 .333-.066.444-.12.127-.06.268-.145.419-.245l-.555-.832Zm-.308.197a.7.7 0 0 1-.246-.088 3.986 3.986 0 0 1-.58-.374l-.6.8c.264.197.51.357.733.469.216.108.454.193.692.193v-1Zm-.848-.478c-.532-.355-.621-.6-.621-.71h-1c0 .641.473 1.147 1.066 1.542l.555-.832Zm-.621-.71c0-.13.021-.252.063-.367l-.94-.342a2.066 2.066 0 0 0-.123.71h1Zm.093-.538v-.938h-1v.938h1Zm0-.95-.187-7.898-1 .024.188 7.898 1-.024Zm-.189-7.929a10.105 10.105 0 0 0-.492-2.342l-.95.316c.24.716.387 1.419.446 2.111l.996-.085Zm-.51-2.387a.492.492 0 0 1-.05-.195h-1c0 .209.052.411.136.601l.914-.406Zm-.05-.195a.357.357 0 0 1-.183.306c-.026.013-.038.014-.024.011a.515.515 0 0 1 .081-.005v-1c-.15 0-.337.016-.504.1a.644.644 0 0 0-.37.588h1Z"/></svg>
